X:14
T:At Odds with Machinery
R:reel
C: 1976, 2010 L.E. McCullough
M:4/4  
L:1/8
K:Ador
|:~A2 cA edcA|GEDE GABG|~A2cA edcA|
GEGA B~A3|ABcd e ~A3|GEGA B~d3|
e~g3 aged|1 GABG ~A3G:|2 GABG ~A3d|]
|:e~g3 abge|d~B3 AGED|b~a3 gega|
bage ~a3g|e~d3 B~A3|GEGA B~d3|
e~g3 aged|1 GABG ~A3d:|2 GABG ~A3G|]

